!!!COM:	Bach, Johann Sebastian
!!!CDT:	1685/02/21/-1750/07/28/
!!!OTL@@DE:	Wachet auf, ruft uns die Stimme
!!!SCT:	BWV 140/7
!!!PC#:	179
!!!AGN:	chorale
**kern	**kern	**kern	**kern
*ICvox	*ICvox	*ICvox	*ICvox
*Ibass	*Itenor	*Ialto	*Isoprn
*I"Bass	*I"Tenor	*I"Alto	*I"Soprano
*>[A,A,B]	*>[A,A,B]	*>[A,A,B]	*>[A,A,B]
*>norep[A,B]	*>norep[A,B]	*>norep[A,B]	*>norep[A,B]
*>A	*>A	*>A	*>A
*clefF4	*clefGv2	*clefG2	*clefG2
*k[b-e-a-]	*k[b-e-a-]	*k[b-e-a-]	*k[b-e-a-]
*E-:	*E-:	*E-:	*E-:
*M4/4	*M4/4	*M4/4	*M4/4
*met(c)	*met(c)	*met(c)	*met(c)
*MM100	*MM100	*MM100	*MM100
=1-	=1-	=1-	=1-
[2E-	4G	4B-	4e-
.	4B-	4e-	4g
8E-L]	4e-	4g	4.b-
8G	.	.	.
8B-	4d	4f	.
8A-J	.	.	8b-
=2	=2	=2	=2
8GL	4e-	4g	4b-
8FJ	.	.	.
8E-L	4B-	4f	4b-
8DJ	.	.	.
8E-L	4B-	4g	2cc
8CJ	.	.	.
4F	4A	4f	.
=3	=3	=3	=3
2BB-;	2d;	2f;	2b-;
4r	4ry	4ry	4r
8B-L	4d	4f	4b-
8A-XJ	.	.	.
=4	=4	=4	=4
8GL	4e-	4.b-	4ee-
8A-J	.	.	.
8GL	4e-	.	4b-
8FJ	.	8a-	.
4E-	4B-	8gL	8ee-L
.	.	8a-J	8ffJ
4e-	4e-	4b-	4gg
=5	=5	=5	=5
8dL	4f	4b-	4ff
8c	.	.	.
8B-	4f	[4cc	4ee-
8AJ	.	.	.
4B-	[4f	8cc]	4dd
.	.	4b-	.
4F	8fL]	.	4cc
.	8cJ	8a	.
=6	=6	=6	=6
2BB-;	2d;	2f;	2b-;
4r	4ry	4ry	4r
8E-L	4e-	4g	4b-
8D-J	.	.	.
=7	=7	=7	=7
8CL	4e-	4a-	4ee-
8DnXJ	.	.	.
4E-	8e-L	4g	4b-
.	8d-J	.	.
8A-L	4c	4e-	4cc
8B-J	.	.	.
4c	4c	4e-	4g
=8	=8	=8	=8
4F	8cL	4e-	8a-L
.	8B-J	.	8gJ
4BB-	4A-	4dnX	4f
4E-;	4G;	4B-;	4e-;
=:|!	=:|!	=:|!	=:|!
*>B	*>B	*>B	*>B
4D	4B-	4f	4b-
=9	=9	=9	=9
4E-	8e-L	4.g	4.b-
.	8dJ	.	.
4F	8cL	.	.
.	8dJ	8f	8a-
8GL	4e-	8B-L	4g
8A-J	.	8cJ	.
8B-L	8B-L	4d	4f
8BB-J	8A-J	.	.
=10	=10	=10	=10
2C;	2G;	2c;	2e-;
4r	4ry	4ry	4r
4G	4B-	8dL	4b-
.	.	8e-J	.
=11	=11	=11	=11
8DL	8B-L	4f	4.b-
8CJ	8cJ	.	.
4BB-	4d	[4f	.
.	.	.	8a-
8E-L	8B-	8f]	4g
8CJ	4c	4e-	.
8AA-L	.	.	4f
8BB-J	8B-	8d	.
=12	=12	=12	=12
2E-;	2G;	2B-;	2e-;
4r	4ry	4ry	4r
8B-L	4B-	4d	4f
8A-J	.	.	.
=13	=13	=13	=13
4G	4B-	4.e-	4g
4F	8cL	.	4a-
.	8A-J	8d	.
4E-;	4B-;	4e-;	4g;
4e-	4e-	4g	4b-
=14	=14	=14	=14
4A	4e-	8gL	4cc
.	.	8fJ	.
4B	4d	8fL	4dd
.	.	8gJ	.
4c;	4c;	4g;	4ee-;
4c	4e-	8gL	8ee-L
.	.	8a-XJ	8ffJ
=15	=15	=15	=15
8GL	4e-	4.b-	4gg
8A-XJ	.	.	.
4B-X	4d	.	4ff
.	.	8a-	.
4C;	4e-;	4g;	4ee-;
8E-L	4e-	8gL	4b-
8FJ	.	8a-J	.
=16	=16	=16	=16
8GL	4B-	8b-L	4ee-
8FJ	.	8a-J	.
8GL	4e-	8b-L	4b-
8E-J	.	8gJ	.
8AA-L	4.e-	4a-	4cc
8BB-J	.	.	.
4C	.	4e-	4g
.	8c	.	.
=17	=17	=17	=17
4F	8cL	4e-	8a-L
.	8B-J	.	8gJ
4BB-	4A-	4d	4f
2E-;	2G;	2B-;	2e-;
==	==	==	==
*-	*-	*-	*-
!!!hum2abc: -Q ''
!!!title: @{PC#}. @{OTL@@DE}
!!!YOR1: 371 vierstimmige Choralges&auml;nge von Johann Sebastian Bach, 
!!!YOR2: 4th ed. by Alfred D&ouml;rffel (Leipzig: Breitkopf und H&auml;rtel, 
!!!YOR2: c.1875). 178 pp. Plate "V.A.10".  reprint: J.S. Bach, 371 Four-Part 
!!!YOR4: Chorales (New York: Associated Music Publishers, Inc., c.1940).
!!!SMS: B&H, 4th ed, Alfred D&ouml;rffel, c.1875, plate V.A.10
!!!EED:  Craig Stuart Sapp
!!!EEV:  2009/05/22
